X:1
T: Ginnie Pin your Bonnet on
C:
R:Reel
Q: 232
K:Em
M:4/4
L:1/8
|:E2 ED F2 FD|E2 EF DF AF|E2 ED F2 FD|DF AF E2 e2|
E2 ED F2 FD|E2 EF DF AF|E2 ED F2 FD|DF AF E2 e2|
dB BA dB A^c|dB BA d2 e^c|dB BA dB A^c|dB AG E2 e2|
dB BA dB A^c|dB BA d2 e^c|fa ef de fd|Bd AF E2 e2:|
